X: 33078
T: Primrose Lasses, The
R: strathspey
M: 4/4
K: Gmajor
|:G>A|B2- B>A G2 G>E|D>EG>A B>AA>c|B>cB>A G>AG>E|D>EG>A B>G:|
G>c|(3Bcd g>d e>dg>d|B>dg>B c>AA>c|(3Bcd g>d e>d g2|B>c (3ABc B>GG>c|
(3Bcd g>d e>dg>d|e>dg>B c>A (3AAA|B2 (3cBA G2- G>E|D>EG>A B<G||

